X:1
T: Old Toon of Ayr
C:
R:Strathspey
Q: 128
K:D
M:4/4
L:1/16
|:F2|DD3 F3A d6 c2|BABc d3B AF3 Fd3|DD3 F3A d6 f2|((3efg) ((3gfe) dB3 Bd3|
DD3 F3A d6 c2|BABc d3B AF3 FA3|BABc d3B AF3 Fd3|AF3 F3D E6 F2|
D3d F3d AF3 FA3|BABc d3B AF3 Fd3|D3d F3d AF3 FA3|d3B A3F E6 F2|
D3d F3d AF3 FA3|B3A B3c d6 f2|((3efg) ((3gfe) dB3 Bd3|AF3 A3E D6:|
